X:1
T: Church Street
C:
R:Reel
Q: 232
K:G
M:4/4
L:1/8
|:D2|G2 B2 A2 BA|G2 g2 ef ge|d2 B2 A2 GA|B2 A2 GF ED|
G2 B2 A2 BA|G2 g2 ef ge|d2 B2 A2 GA|B2 G2 G2 d2|
B2 d2 g3d|B2 d2 g3d|B2 d2 g2 e2|f6 g2|
a2 g2 ef ge|d2 B2 A2 GA|B2 e2 dB A2|1G6 D2:|2G6||
